X:550
T:The Bashful Lover
M:3/4
L:1/8
Q:80
B:O'Neill's 550
N:"Slow"
Z:Transcribed by Dave Wooldridge
K:G
GA|\
BB B2 AG|G2 D2  GA|B2 B2  ge|ed4  ge|
ed dB AG|G2  D2  GA|B2 B2 BAG|G4||
de|\
g3 aba|ag2 d2 de|gd cB AG|GA4 Bd|
g2 ga ba|g2 d2 Bc|dg b2 bag|g4 fg|
gd cB AG|G2 D2 GA|B2 B2 BAG|G4||
